src/assets/img/unsorted/emotes/26.svg

<svg xmlns:xlink="http://www.w3.org/1999/xlink" height="100.8" width="132.65" xmlns="http://www.w3.org/2000/svg"><use height="13.05" transform="translate(65.8 67.7)" width="24.45" xlink:href="#a"/><defs><g id="a"><path d="M2.7-3.25q-.1.25-.05.65-.05.75.35 1.3.4.5.95.5.55 0 .95-.5.4-.55.4-1.3 0-.85-.4-1.35l-.45-.4q1.1-.6 2.4-.85l3 .25h.2l-1.1 2.7-.6 1.1-.9 1.6q-1 1.2-2.3 1.4l-.5.05-1-.15Q2.6 1.4 1.85.45q-.65-.8-.9-1.7L.9-1.4l1.8-1.85m.6-.3.35-.15.3.15.2.5-.2.45-.3.2q-.25-.05-.35-.2-.15-.2-.15-.45l.15-.5m-3.5 2.1-.05.2Q-.55-.3-1.2.5l-1.3 1.1-1.5.35-1.1-.2q-.95-.3-1.7-1.25l-.9-1.6q-.65-1.95-.75-4.15 4.65-.55 7.15 2.4l1.1 1.4" fill="#fff" fill-rule="evenodd" transform="translate(11.95 5.85)"/><path d="M4.45-4.35q-.95.4-1.75 1.1.8-.7 1.75-1.1l.45.4q.4.5.4 1.35 0 .75-.4 1.3-.4.5-.95.5-.55 0-.95-.5-.4-.55-.35-1.3-.05-.4.05-.65l.3-.7q.4-.55.95-.5l.5.1m-1.15.8-.15.5q0 .25.15.45.1.15.35.2l.3-.2.2-.45-.2-.5-.3-.15-.35.15" fill-rule="evenodd" transform="translate(11.95 5.85)"/><path d="M.7-2.65.9-1.4l.05.15q.25.9.9 1.7.75.95 1.8 1.3L1.2 1.6h-3.7L-1.2.5q.65-.8.95-1.75l.05-.2.15-1.2H.7m7.65 1.5.6.3q3.5 1.8 3.55 2.8 0 .95-3.15.4l-4.2-.5q1.3-.2 2.3-1.4l.9-1.6M-5.1 1.75l-2.75.4-4.1-.2q0-.95 3.7-2.75l.55-.3.9 1.6q.75.95 1.7 1.25" fill-opacity=".153" fill-rule="evenodd" transform="translate(11.95 5.85)"/><path d="M2.7-3.25q.8-.7 1.75-1.1 1.1-.6 2.4-.85l3 .25-.45-.35M.9-1.4.7-2.65m-.75 0-.15 1.2-1.1-1.4q-2.5-2.95-7.15-2.4M.9-1.4l1.8-1.85M6.35 6.7Q1.7 2.4-3.65 5q-1.4.6-2.65 1.45" fill="none" stroke="#666" stroke-linecap="round" stroke-linejoin="round" transform="translate(11.95 5.85)"/><path d="m-.2-1.45-.05.2Q-.55-.3-1.2.5l-1.3 1.1-1.5.35-1.1-.2q-.95-.3-1.7-1.25l-.9-1.6q-.65-1.95-.75-4.15m12.1 7Q2.6 1.4 1.85.45q-.65-.8-.9-1.7L.9-1.4m4.25 3.25-.5.05-1-.15m4.7-2.9.6-1.1 1.1-2.7m-4.9 6.8q1.3-.2 2.3-1.4l.9-1.6" fill="none" stroke="#900" stroke-linecap="round" stroke-linejoin="round" transform="translate(11.95 5.85)"/><path d="M-3.2-4.45q.55-.05.95.45.4.55.4 1.35t-.4 1.3q-.4.55-.95.55-.55 0-.95-.55-.4-.5-.4-1.3t.4-1.35q.4-.5.95-.45m-.8 1.4.15.4.35.25.3-.25q.15-.15.15-.4l-.15-.5q-.1-.2-.3-.2l-.35.2-.15.5" fill-rule="evenodd" transform="translate(11.95 5.85)"/><path d="m-4-3.05.15-.5.35-.2q.2 0 .3.2l.15.5q0 .25-.15.4l-.3.25-.35-.25-.15-.4" fill="#fff" fill-rule="evenodd" transform="translate(11.95 5.85)"/></g></defs></svg>

<?xml version="1.0" encoding="UTF-8" standalone="no"?>
<svg xmlns:xlink="http://www.w3.org/1999/xlink" height="100.8px" width="132.65px" xmlns="http://www.w3.org/2000/svg">
  <g transform="matrix(1.0, 0.0, 0.0, 1.0, 77.75, 73.55)">
    <use height="13.05" transform="matrix(1.0, 0.0, 0.0, 1.0, -11.95, -5.85)" width="24.45" xlink:href="#shape0"/>
  </g>
  <defs>
    <g id="shape0" transform="matrix(1.0, 0.0, 0.0, 1.0, 11.95, 5.85)">
      <path d="M2.7 -3.25 Q2.6 -3.0 2.65 -2.6 2.6 -1.85 3.0 -1.3 3.4 -0.8 3.95 -0.8 4.5 -0.8 4.9 -1.3 5.3 -1.85 5.3 -2.6 5.3 -3.45 4.9 -3.95 L4.45 -4.35 Q5.55 -4.95 6.85 -5.2 L9.85 -4.95 10.05 -4.95 8.95 -2.25 8.35 -1.15 7.45 0.45 Q6.45 1.65 5.15 1.85 L4.65 1.9 3.65 1.75 Q2.6 1.4 1.85 0.45 1.2 -0.35 0.95 -1.25 L0.9 -1.4 2.7 -3.25 M3.3 -3.55 L3.65 -3.7 3.95 -3.55 4.15 -3.05 3.95 -2.6 3.65 -2.4 Q3.4 -2.45 3.3 -2.6 3.15 -2.8 3.15 -3.05 L3.3 -3.55 M-0.2 -1.45 L-0.25 -1.25 Q-0.55 -0.3 -1.2 0.5 L-2.5 1.6 -4.0 1.95 -5.1 1.75 Q-6.05 1.45 -6.8 0.5 L-7.7 -1.1 Q-8.35 -3.05 -8.45 -5.25 -3.8 -5.8 -1.3 -2.85 L-0.2 -1.45" fill="#ffffff" fill-rule="evenodd" stroke="none"/>
      <path d="M4.45 -4.35 Q3.5 -3.95 2.7 -3.25 3.5 -3.95 4.45 -4.35 L4.9 -3.95 Q5.3 -3.45 5.3 -2.6 5.3 -1.85 4.9 -1.3 4.5 -0.8 3.95 -0.8 3.4 -0.8 3.0 -1.3 2.6 -1.85 2.65 -2.6 2.6 -3.0 2.7 -3.25 L3.0 -3.95 Q3.4 -4.5 3.95 -4.45 L4.45 -4.35 M3.3 -3.55 L3.15 -3.05 Q3.15 -2.8 3.3 -2.6 3.4 -2.45 3.65 -2.4 L3.95 -2.6 4.15 -3.05 3.95 -3.55 3.65 -3.7 3.3 -3.55" fill="#000000" fill-rule="evenodd" stroke="none"/>
      <path d="M0.7 -2.65 L0.9 -1.4 0.95 -1.25 Q1.2 -0.35 1.85 0.45 2.6 1.4 3.65 1.75 L1.2 1.6 -2.5 1.6 -1.2 0.5 Q-0.55 -0.3 -0.25 -1.25 L-0.2 -1.45 -0.05 -2.65 0.45 -2.65 0.7 -2.65 M8.35 -1.15 L8.95 -0.85 Q12.45 0.95 12.5 1.95 12.5 2.9 9.35 2.35 L5.15 1.85 Q6.45 1.65 7.45 0.45 L8.35 -1.15 M-5.1 1.75 L-7.85 2.15 -11.95 1.95 Q-11.95 1.0 -8.25 -0.8 L-7.7 -1.1 -6.8 0.5 Q-6.05 1.45 -5.1 1.75" fill="#000000" fill-opacity="0.15294118" fill-rule="evenodd" stroke="none"/>
      <path d="M2.7 -3.25 Q3.5 -3.95 4.45 -4.35 5.55 -4.95 6.85 -5.2 L9.85 -4.95 9.4 -5.3 M0.9 -1.4 L0.7 -2.65 M-0.05 -2.65 L-0.2 -1.45 -1.3 -2.85 Q-3.8 -5.8 -8.45 -5.25 M0.9 -1.4 L2.7 -3.25 M6.35 6.7 Q1.7 2.4 -3.65 5.0 -5.05 5.6 -6.3 6.45" fill="none" stroke="#666666" stroke-linecap="round" stroke-linejoin="round" stroke-width="1.0"/>
      <path d="M-0.2 -1.45 L-0.25 -1.25 Q-0.55 -0.3 -1.2 0.5 L-2.5 1.6 -4.0 1.95 -5.1 1.75 Q-6.05 1.45 -6.8 0.5 L-7.7 -1.1 Q-8.35 -3.05 -8.45 -5.25 M3.65 1.75 Q2.6 1.4 1.85 0.45 1.2 -0.35 0.95 -1.25 L0.9 -1.4 M5.15 1.85 L4.65 1.9 3.65 1.75 M8.35 -1.15 L8.95 -2.25 10.05 -4.95 M5.15 1.85 Q6.45 1.65 7.45 0.45 L8.35 -1.15" fill="none" stroke="#990000" stroke-linecap="round" stroke-linejoin="round" stroke-width="1.0"/>
      <path d="M-3.2 -4.45 Q-2.65 -4.5 -2.25 -4.0 -1.85 -3.45 -1.85 -2.65 -1.85 -1.85 -2.25 -1.35 -2.65 -0.8 -3.2 -0.8 -3.75 -0.8 -4.15 -1.35 -4.55 -1.85 -4.55 -2.65 -4.55 -3.45 -4.15 -4.0 -3.75 -4.5 -3.2 -4.45 M-4.0 -3.05 L-3.85 -2.65 -3.5 -2.4 -3.2 -2.65 Q-3.05 -2.8 -3.05 -3.05 L-3.2 -3.55 Q-3.3 -3.75 -3.5 -3.75 L-3.85 -3.55 -4.0 -3.05" fill="#000000" fill-rule="evenodd" stroke="none"/>
      <path d="M-4.0 -3.05 L-3.85 -3.55 -3.5 -3.75 Q-3.3 -3.75 -3.2 -3.55 L-3.05 -3.05 Q-3.05 -2.8 -3.2 -2.65 L-3.5 -2.4 -3.85 -2.65 -4.0 -3.05" fill="#ffffff" fill-rule="evenodd" stroke="none"/>
    </g>
  </defs>
</svg>
